!!!!SEGMENT: pl-stab--24b--002_nowakiewicz-kazimierz--hej-bracia-czy-spicie.krn
!!!cenid: 18xx:3448
!!!COM: Nowakiewicz, Kazimierz
!!!COM-rismID: pe30020309
!!!CDT: <1800->1824
!!!CNT: Polish
!!!OTL: Hej bracia czy śpicie
!!!PDT:
!!!AGN: Christmas
!!!YEC: Copyright 2022 Narodowy Instytut Fryderyka Chopina (https://polishscores.org)
!!!YEM: License CC-BY-4.0 (https://creativecommons.org/licenses/by/4.0)
!!!SMS-siglum: PL-STAb
!!!SMS-shelfmark: 24b
!!!SMS-shelfwork: 002 W
!!!SMS-variant:
!!!SMS-altvar:
!!!NIFC-rismSourceID: 301050703
!!!NIFC-rismChildID: 301050703
!!!NIFC-islandoraID: pl-stab:3601
!!!URL-pdf-islandora: https://repozytorium.nifc.pl/islandora/object/pl-stab%3A3601/datastream/PDF/view
!!!URL-scan: https://polish.musicsources.pl/pl/lokalizacje/galeria/rekopisy/4465 @EN{Scan on Polish Music Sources Website} @PL{Skany w portalu Dziedzictwo Muzyki Polskiej w otwartym dostępie}
!!!IIIF:
!!!ONB-nifc: UWAGA: Hej bracia czy śpicie na podstawie głosów (Canto, Violino Primo, Violino Secundo)
!!!AIN: 1 soprn 2 violn
!!!key: G
!!!OMD: Aria allegretto
!!!OMD: Allegretto
**kern	**dynam	**kern	**dynam	**kern	**text	**mod-text
*part3	*	*part2	*	*part1	*	*
*staff3	*	*staff2	*	*staff1	*	*
*I"Violino Secundo	*	*I"Violino Primo	*	*I"Canto	*	*
*mI"Violino II	*	*mI"Violino I	*	*mI"Soprano	*	*
*I'vl 2	*	*I'vl 1	*	*I'S	*	*
*Ivioln	*	*Ivioln	*	*Isoprn	*	*
*ICstr	*	*ICstr	*	*ICvox	*	*
*IGacmp	*	*IGacmp	*	*IGsolo	*	*
*clefG2	*	*clefG2	*	*clefC1	*	*
*	*	*	*	*mclefG2	*	*
*k[f#]	*	*k[f#]	*	*k[f#]	*	*
*G:	*	*G:	*	*G:	*	*
*M2/4	*	*M2/4	*	*M2/4	*	*
=1	=1	=1	=1	=1	=1	=1
!LO:TX:a:i:t=Aria allegretto:mod=	!	!LO:TX:a:i:t=Aria allegretto:mod=	!	!LO:TX:a:i:t=Aria allegretto:mod=	!	!
!	!	!	!	!LO:MO:mod=!null:null	!	!
!	!	!	!	!LO:TX:a:t=12	!	!
8d/	.	8dd 8d/	.	2r	.	.
4d/	.	4dd 4d/	.	.	.	.
8d/	.	8dd 8d/	.	.	.	.
=2	=2	=2	=2	=2	=2	=2
8c#X/L	.	8cc#X\L	.	2r	.	.
8d/	.	8dd\	.	.	.	.
8e/	.	8ee\	.	.	.	.
8d/J	.	8dd\J	.	.	.	.
=3	=3	=3	=3	=3	=3	=3
!LO:SIC:s=8c#/L:v	!	!LO:SIC:s=8cc#\L:v	!	!	!	!
8c/L	.	8cc\L	.	2r	.	.
8d/	.	8dd\	.	.	.	.
8A/	.	8a\	.	.	.	.
8d/J	.	8dd\J	.	.	.	.
=4	=4	=4	=4	=4	=4	=4
8B/	.	8b/	.	2r	.	.
4G/	.	4gsSSs</	.	.	.	.
8G/	.	8g/	.	.	.	.
=5	=5	=5	=5	=5	=5	=5
[<2d 2c/	.	8f#/L	.	2r	.	.
.	.	16f#/L	.	.	.	.
.	.	16e/JJ	.	.	.	.
.	.	16d/LL	.	.	.	.
.	.	16e/	.	.	.	.
.	.	16f#/	.	.	.	.
.	.	16d/JJ	.	.	.	.
=6	=6	=6	=6	=6	=6	=6
2d_< 2B/	.	8g/L	.	2r	.	.
.	.	16g/L	.	.	.	.
.	.	16f#/JJ	.	.	.	.
.	.	16g/LL	.	.	.	.
.	.	16a/	.	.	.	.
.	.	16b/	.	.	.	.
.	.	16g/JJ	.	.	.	.
=7	=7	=7	=7	=7	=7	=7
2d_< 2c/	.	8f#/L	.	2r	.	.
.	.	16f#/L	.	.	.	.
.	.	16e/JJ	.	.	.	.
.	.	16d/LL	.	.	.	.
.	.	16e/	.	.	.	.
.	.	16f#/	.	.	.	.
.	.	16d/JJ	.	.	.	.
=8	=8	=8	=8	=8	=8	=8
2d] 2B/	.	8g/	.	2r	.	.
.	.	4g/	.	.	.	.
.	.	8ggsSSs\	.	.	.	.
!	!	!LO:LB:g=original	!	!	!	!
=9	=9	=9	=9	=9	=9	=9
*tremolo	*	*	*	*	*	*
8ccL 8d/	.	8ff#\L	.	2r	.	.
8cc 8d/	.	16ff#\L	.	.	.	.
.	.	16ee\JJ	.	.	.	.
8cc 8d/	.	16dd\LL	.	.	.	.
.	.	16ee\	.	.	.	.
8ccJ 8d/	.	16ff#\	.	.	.	.
.	.	16dd\JJ	.	.	.	.
*	*	*	*	*	*	*
=10	=10	=10	=10	=10	=10	=10
*	*	*	*	*	*	*
8bL 8d/	.	8gg\L	.	2r	.	.
8b 8d/	.	16gg\L	.	.	.	.
.	.	16ff#\JJ	.	.	.	.
8b 8d/	.	16gg\LL	.	.	.	.
.	.	16aa\	.	.	.	.
8bJ 8d/	.	16bb\	.	.	.	.
.	.	16gg\JJ	.	.	.	.
*	*	*	*	*	*	*
!LO:LB:g=original	!	!	!	!	!	!
=11	=11	=11	=11	=11	=11	=11
*	*	*	*	*	*	*
8ccL 8d/	.	8ff#\L	.	2r	.	.
8cc 8d/	.	16ff#\L	.	.	.	.
.	.	16ee\JJ	.	.	.	.
8cc 8d/	.	16dd\LL	.	.	.	.
.	.	16ee\	.	.	.	.
8ccJ 8d/	.	16ff#\	.	.	.	.
.	.	16dd\JJ	.	.	.	.
*	*	*	*	*	*	*
=12	=12	=12	=12	=12	=12	=12
*	*	*	*	*	*	*
8bL 8d/	.	8ggsSSs\	.	2r	.	.
8b 8d/	.	4g/	.	.	.	.
8b 8d/	.	.	.	.	.	.
8bJ 8d/	.	8gg\	.	.	.	.
*	*	*	*	*	*	*
=13	=13	=13	=13	=13	=13	=13
*	*	*2\right	*	*	*	*
*	*	*tremolo	*	*	*	*
!	!	!	!	!LO:MO:mod=!null:null	!	!
!	!	!	!	!LO:TX:a:i:t=Solo	!	!
8G/L	p	8b\L	p	8dd\	Ey	Hej,
8d/	.	8dd\	.	4dd\	Bra-	bra-
8G/	.	8b\	.	.	.	.
8d/J	.	8dd\J	.	8dd\	-cia	-cia,
*Xtremolo	*	*Xtremolo	*	*	*	*
=14	=14	=14	=14	=14	=14	=14
!	!	!	!	!LO:SIC:s=8cc#X\:v	!	!
8A#X/L	.	8cc#X\L	.	8cc#X\L	czy	czy
!	!	!	!	!LO:SIC:s=8dd\:v	!	!
8B/	.	8dd\	.	8dd\J	wy	wy
!	!	!	!	!LO:SIC:s=8ee\:v	!	!
8c/	.	8ee\	.	8ee\L	spi-	śpi-
!	!	!	!	!LO:SIC:s=8dd\:v	!	!
8B/J	.	8dd\J	.	8dd\J	-cie	-cie,
=15	=15	=15	=15	=15	=15	=15
!	!	!LO:SIC:s=8cc#\L:v	!	!	!	!
8A#X/L	.	8cc\L	.	8cc#X\	czy	czy
8B/	.	8dd\	.	8dd\	wszy-	wszy-
8d 8B/	.	8a\	.	8a\	-sci	-scy
8dJ 8B/	.	8dd\J	.	8dd\	ba-	ba-
=16	=16	=16	=16	=16	=16	=16
*tremolo	*	*	*	*	*	*
8dL 8B/	.	8b\	.	8b\	-czy-	-czy-
8d 8B/	.	4gg\	.	4g\	-cie	-cie?
8d 8B/	.	.	.	.	.	.
8dJ 8B/	.	8g/	.	8r	.	.
*	*	*	*	*	*	*
!	!	!	!	!LO:LB:g=original	!	!
=17	=17	=17	=17	=17	=17	=17
*	*	*tremolo	*	*	*	*
!	!	!	!	!LO:SIC:s=8f#/:v	!	!
8A/L	.	8f#/L	.	8f#/L	dzi-	Dzi-
!	!	!	!	!LO:SIC:s=8f#/:v	!	!
8c/	.	8a/	.	8f#/J	-wy	-wy
8A/	.	8f#/	.	8d/	nie-	nie-
8c/J	.	8a/J	.	8f#/	-sły-	-sły-
*	*	*	*	*	*	*
=18	=18	=18	=18	=18	=18	=18
*	*	*	*	*	*	*
!	!	!	!	!LO:SIC:s=(8g\:v	!	!
8B/L	.	8g/L	.	8g\	-cha-	-cha-
!	!	!	!	!LO:SIC:s=4b\):v	!	!
8d/	.	8b/	.	4b\	.	.
8B/	.	8g/	.	.	.	.
8d/J	.	8b/J	.	8g\	-ne	-ne,
*	*	*	*	*	*	*
!	!	!LO:LB:g=original	!	!	!	!
=19	=19	=19	=19	=19	=19	=19
*	*	*	*	*	*	*
8A/L	.	8f#/L	.	8f#/	dzi-	dzi-
8c/	.	8a/	.	8f#/	-wy	-wy
8A/	.	8f#/	.	8d/	nie-	nie-
8c/J	.	8a/J	.	8f#/	-sły-	-sły-
*	*	*Xtremolo	*	*	*	*
=20	=20	=20	=20	=20	=20	=20
*	*	*	*	*	*	*
!	!	!LO:TX:t=P:problem=mixed beam	!	!	!	!
!	!	!	!	!LO:SIC:s=(8g\:v	!	!
8dL 8B/	.	(8g/L	.	8g\	-cha-	-cha-
!	!	!	!	!LO:SIC:s=4b\):v	!	!
8d 8B/	.	8b/	.	4b\	.	.
8d 8B/	.	8g/)	.	.	.	.
8dJ 8B/	.	8gg\J	.	8g\	-ne	-ne!
*Xtremolo	*	*	*	*	*	*
!LO:LB:g=original	!	!	!	!	!	!
=21	=21	=21	=21	=21	=21	=21
!	!LO:DY:t= :mod=%s	!	!	!	!	!
!	!LO:MO:mod=!LO&colon;DY&colon;ed=brack	!	!	!	!	!
!	!null	!	!	!	!	!
16d/LL	f	8ff#\L	f	0r	.	.
16cc/	.	.	.	.	.	.
16a/	.	16ff#\L	.	.	.	.
16cc/JJ	.	16ee\JJ	.	.	.	.
*rep	*	*	*	*	*	*
16d/LL	.	16dd\LL	.	.	.	.
16cc/	.	16ee\	.	.	.	.
16a/	.	16ff#\	.	.	.	.
16cc/JJ	.	16dd\JJ	.	.	.	.
*Xrep	*	*	*	*	*	*
=22	=22	=22	=22	=22	=22	=22
16d/LL	.	8gg\L	.	.	.	.
16b/	.	.	.	.	.	.
16g/	.	16gg\L	.	.	.	.
16b/JJ	.	16ff#\JJ	.	.	.	.
*rep	*	*	*	*	*	*
16d/LL	.	16gg\LL	.	.	.	.
16b/	.	16aa\	.	.	.	.
16g/	.	16bb\	.	.	.	.
16b/JJ	.	16gg\JJ	.	.	.	.
*Xrep	*	*	*	*	*	*
=23	=23	=23	=23	=23	=23	=23
16d/LL	.	8ff#\L	.	.	.	.
16cc/	.	.	.	.	.	.
16a/	.	16ff#\L	.	.	.	.
16cc/JJ	.	16ee\JJ	.	.	.	.
*rep	*	*	*	*	*	*
16d/LL	.	16dd\LL	.	.	.	.
16cc/	.	16ee\	.	.	.	.
16a/	.	16ff#\	.	.	.	.
16cc/JJ	.	16dd\JJ	.	.	.	.
*Xrep	*	*	*	*	*	*
=24	=24	=24	=24	=24	=24	=24
16d/LL	.	8gg\	.	.	.	.
16b/	.	.	.	.	.	.
16g/	.	4gg\	.	.	.	.
16b/JJ	.	.	.	.	.	.
8gL 8B/	.	.	.	.	.	.
8gJ 8B/	.	8g/	.	.	.	.
!	!	!	!	!LO:LB:g=original	!	!
=25	=25	=25	=25	=25	=25	=25
8r	.	8r	.	8dd\	Oy	Oj,
8dL 8B/	.	8bL 8g/	.	4dd\	trwo-	trwo-
8d 8B/	.	8b 8g/	.	.	.	.
8dJ 8B/	.	8bJ 8g/	.	8dd\	-ga	-ga
=26	=26	=26	=26	=26	=26	=26
8r	.	8r	.	8cc#X\L	dla	dla
*rep	*	*	*	*	*	*
8dL 8B/	.	8bL 8g/	.	8dd\J	.	.
!	!	!	!	!LO:SIC:s=8ee\:v	!	!
8d 8B/	.	8b 8g/	.	8ee\L	Bo-	Bo-
!	!	!	!	!LO:SIC:s=8dd\:v	!	!
8dJ 8B/	.	8bJ 8g/	.	8dd\J	-ga	-ga,
*Xrep	*	*	*	*	*	*
=27	=27	=27	=27	=27	=27	=27
!	!	!	!	!LO:SIC:s=8cc#\L:v	!	!
8r	.	8r	.	8cc\L	co	co
*rep	*	*	*	*	*	*
8dL 8B/	.	8bL 8g/	.	8dd\J	.	.
!	!	!	!	!LO:SIC:s=8b\L:v	!	!
8d 8B/	.	8b 8g/	.	8a\L	się	się
8dJ 8B/	.	8bJ 8g/	.	8dd\J	.	.
*Xrep	*	*	*	*	*	*
!LO:LB:g=original	!	!LO:LB:g=original	!	!	!	!
=28	=28	=28	=28	=28	=28	=28
8r	.	8r	.	8b\	dzie-	dzie-
*rep	*	*	*	*	*	*
8dL 8B/	.	8bL 8g/	.	4g\	-je	-je?
8d 8B/	.	8b 8g/	.	.	.	.
8dJ 8B/	.	8bJ 8g/	.	8r	.	.
*Xrep	*	*	*	*	*	*
=29	=29	=29	=29	=29	=29	=29
!	!	!	!	!LO:SIC:s=8f#/:v	!	!
8r	.	8r	.	8f#/L	jas-	Ja-
!	!	!	!	!LO:SIC:s=8f#/:v	!	!
8aL 8f#/	.	8ccL 8d/	.	8f#/J	-nosc	-sność
!	!	!	!	!LO:LB:g=original	!	!
!!LO:MO:ori
=-	=-	=-	=-	=-	=-	=-
!!LO:MO:end
8a 8f#/	.	8cc 8d/	.	8d/	w_no-	w no-
8aJ 8f#/	.	8ccJ 8d/	.	8f#/	-cy	-cy,
=30	=30	=30	=30	=30	=30	=30
8r	.	8r	.	8g\	choć	choć
8gL 8B/	.	8bL 8d/	.	8a\	nie	nie
8g 8B/	.	8b 8d/	.	8b\	dnie-	dnie-
8gJ 8B/	.	8bJ 8d/	.	8g\	-ie	-je,
=31	=31	=31	=31	=31	=31	=31
!	!	!	!	!LO:SIC:s=8f#/:v	!	!
8r	.	8r	.	8f#/L	ias-	ja-
!	!	!LO:MO:mod=*tremolo:null	!	!	!	!
*	*	*null	*	*	*	*
*tremolo	*	*	*	*	*	*
!	!	!	!	!LO:SIC:s=8f#/:v	!	!
8aL 8f#/	.	8ccL 8d/	.	8f#/J	-nosc	-sność
8a 8f#/	.	8cc 8d/	.	8d/	w_no-	w no-
.	.	.	.	.	.	.
8aJ 8f#/	.	8ccJ 8d/	.	8f#/	-cy	-cy,
!	!	!LO:MO:mod=*Xtremolo:null	!	!	!	!
*	*	*null	*	*	*	*
*	*	*	*	*	*	*
=32	=32	=32	=32	=32	=32	=32
8r	.	8r	.	8g\	choć	choć
*	*	*	*	*	*	*
8gL 8B/	.	8bL 8d/	.	8g\	nie	nie
8g 8B/	.	8bJ 8d/	.	8g\	dnie-	dnie-
.	.	.	.	.	.	.
8gJ 8B/	.	8gg 8b\	.	8g\	-je	-je.
*	*	*	*	*	*	*
!	!	!	!	!LO:LB:g=original	!	!
=33	=33	=33	=33	=33	=33	=33
!	!	!LO:MO:mod=!null:null	!	!	!	!
!LO:MO:mod=!null:null	!LO:MO:mod=!null:null	!	!LO:MO:mod=!null:null	!	!	!
!LO:N:vis=2.	!LO:DY:b:rj	!LO:TX:a:t=3	!LO:DY:b	!	!	!
16ccLL 16d/	f	16ff#\LL	f	0r	.	.
16cc 16d/	.	16gg\	.	.	.	.
16cc 16d/	.	16aa\	.	.	.	.
16cc 16d/	.	16bb\JJ	.	.	.	.
.	.	.	.	.	.	.
16cc 16d/	.	16ccc\LL	.	.	.	.
16cc 16d/	.	16bb\	.	.	.	.
16cc 16d/	.	16ccc\	.	.	.	.
.	.	.	.	.	.	.
16ccJJ 16d/	.	16aa\JJ	.	.	.	.
*Xtremolo	*	*	*	*	*	*
=34	=34	=34	=34	=34	=34	=34
16gg\LL	.	16bb\LL	.	.	.	.
16b\	.	16dd\	.	.	.	.
16bb\	.	16ddd\	.	.	.	.
16b\JJ	.	16dd\JJ	.	.	.	.
*rep	*	*rep	*	*	*	*
16gg\LL	.	16bb\LL	.	.	.	.
16b\	.	16dd\	.	.	.	.
16bb\	.	16ddd\	.	.	.	.
16b\JJ	.	16dd\JJ	.	.	.	.
*Xrep	*	*Xrep	*	*	*	*
=35	=35	=35	=35	=35	=35	=35
*tremolo	*	*	*	*	*	*
!	!	!LO:MO:mod=!null:null	!	!	!	!
!	!	!LO:TX:a:t=3	!	!	!	!
16ccLL 16d/	.	16ff#\LL	.	.	.	.
16cc 16d/	.	16gg\	.	.	.	.
16cc 16d/	.	16aa\	.	.	.	.
16cc 16d/	.	16bb\JJ	.	.	.	.
16cc 16d/	.	16ccc\LL	.	.	.	.
16cc 16d/	.	16bb\	.	.	.	.
16cc 16d/	.	16ccc\	.	.	.	.
16ccJJ 16d/	.	16aa\JJ	.	.	.	.
*	*	*	*	*	*	*
!	!	!LO:LB:g=original	!	!	!	!
=36	=36	=36	=36	=36	=36	=36
*	*	*	*	*	*	*
16bLL 16d/	.	16gg\LL	.	.	.	.
16b 16d/	.	16dd\	.	.	.	.
16b 16d/	.	16bb\	.	.	.	.
16b 16d/	.	16dd\JJ	.	.	.	.
*	*	*rep	*	*	*	*
16b 16d/	.	16gg\LL	.	.	.	.
16b 16d/	.	16dd\	.	.	.	.
16b 16d/	.	16bb\	.	.	.	.
16bJJ 16d/	.	16dd\JJ	.	.	.	.
*	*	*Xrep	*	*	*	*
!LO:LB:g=original	!	!	!	!	!	!
=37	=37	=37	=37	=37	=37	=37
*	*	*	*	*	*	*
16ccLL 16d/	.	16ff#\LL	.	0r	.	.
16cc 16d/	.	16gg\	.	.	.	.
16cc 16d/	.	16aa\	.	.	.	.
16cc 16d/	.	16bb\JJ	.	.	.	.
16cc 16d/	.	16ccc\LL	.	.	.	.
16cc 16d/	.	16bb\	.	.	.	.
16cc 16d/	.	16ccc\	.	.	.	.
16ccJJ 16d/	.	16aa\JJ	.	.	.	.
*	*	*	*	*	*	*
=38	=38	=38	=38	=38	=38	=38
*	*	*	*	*	*	*
16bLL 16d/	.	16gg\LL	.	.	.	.
16b 16d/	.	16aa\	.	.	.	.
16b 16d/	.	16bb\	.	.	.	.
16b 16d/	.	16ccc\JJ	.	.	.	.
16b 16d/	.	16ddd\LL	.	.	.	.
16b 16d/	.	16bb\	.	.	.	.
16b 16d/	.	16gg\	.	.	.	.
16bJJ 16d/	.	16dd\JJ	.	.	.	.
*Xtremolo	*	*	*	*	*	*
=39	=39	=39	=39	=39	=39	=39
16d/LL	.	16ff#\LL	.	.	.	.
16cc/	.	16gg\	.	.	.	.
16a/	.	16aa\	.	.	.	.
16cc/JJ	.	16bb\JJ	.	.	.	.
*rep	*	*	*	*	*	*
!	!	!	!LO:MO:mod=!null:null	!	!	!
16d/LL	.	16ccc\LL	f	.	.	.
16cc/	.	16bb\	.	.	.	.
16a/	.	16ccc\	.	.	.	.
16cc/JJ	.	16aa\JJ	.	.	.	.
*Xrep	*	*	*	*	*	*
=40	=40	=40	=40	=40	=40	=40
8bL 8d/	.	8gg\	.	.	.	.
8bJ 8d/	.	8r	.	.	.	.
!	!	!	!LO:DY:t= :mod=%s	!	!	!
!	!	!	!LO:MO:mod=!LO&colon;DY&colon;ed=brack	!	!	!
!	!	!	!null	!	!	!
4r	.	8g/L	p	.	.	.
.	.	16a/L	.	.	.	.
.	.	16b/JJ	.	.	.	.
=41	=41	=41	=41	=41	=41	=41
*tremolo	*	*	*	*	*	*
8eL 8c/	p	8cc/L	.	8cc\	Y	I
8e 8c/	.	(16cc/L	.	8cc\	my	my
.	.	16b/JJ)	.	.	.	.
8e 8c/	.	8cc/L	.	8cc\	terz	też
8eJ 8c/	.	(16cc/L	.	8cc\	pa-	pa-
.	.	16b/JJ)	.	.	.	.
*	*	*	*	*	*	*
=42	=42	=42	=42	=42	=42	=42
*	*	*	*	*	*	*
8eL 8c/	.	16cc\LL	.	(8cc\	-trze-	-trzy-
.	.	16dd\	.	.	.	.
8e 8c/	.	16ee\	.	4g\)	.	.
.	.	16cc\JJ	.	.	.	.
8e 8c/	.	8g/L	.	.	.	.
8eJ 8c/	.	8g/J	.	8g\	-my	-my,
*	*	*	*	*	*	*
!	!	!LO:LB:g=original	!	!	!	!
=43	=43	=43	=43	=43	=43	=43
*	*	*	*	*	*	*
8fnL 8G/	.	8dd\L	.	8dd\	a-	a-
8f 8G/	.	16dd\L	.	8dd\	-le	-le
.	.	16cc#X\JJ	.	.	.	.
8f 8G/	.	8dd\L	.	8dd\	sie	się
8fJ 8G/	.	16dd\L	.	8dd\	bo-	bo-
.	.	16cc#\JJ	.	.	.	.
*	*	*	*	*	*	*
=44	=44	=44	=44	=44	=44	=44
*	*	*	*	*	*	*
!LO:SIC:s=16G/LL 16f:v	!	!	!	!	!	!
!	!	!	!	!LO:SIC:s=8dd\L:v	!	!
16f#LL 16G/	.	16dd\LL	.	(8dd\L	-ie-	-i-
!LO:SIC:s=16G/ 16f:v	!	!	!	!	!	!
16f# 16G/	.	16ee\	.	.	.	.
!LO:SIC:s=16G/ 16f:v	!	!	!	!	!	!
!	!	!	!	!LO:SIC:s=8g\J:v	!	!
!	!	!LO:SIC:s=16ff\:v	!	!	!	!
16f# 16G/	.	16ff#\	.	8g\J)	.	.
!LO:SIC:s=16G/ 16f:v	!	!	!	!	!	!
16f# 16G/	.	16dd\JJ	.	.	.	.
!LO:SIC:s=16G/ 16f:v	!	!	!	!	!	!
16f# 16G/	.	8g/L	.	4g\	-my	-my,
!LO:SIC:s=16G/ 16f:v	!	!	!	!	!	!
16f# 16G/	.	.	.	.	.	.
!LO:SIC:s=16G/ 16f:v	!	!	!	!	!	!
16f# 16G/	.	8g/J	.	.	.	.
!LO:SIC:s=16G/JJ 16f:v	!	!	!	!	!	!
16f#JJ 16G/	.	.	.	.	.	.
*Xtremolo	*	*	*	*	*	*
!	!	!	!	!LO:LB:g=original	!	!
=45	=45	=45	=45	=45	=45	=45
8r	.	8r	.	4ee\	pa-	pa-
8e/	.	8ee\	.	.	.	.
8r	.	8r	.	4cc\	-trząc	-trząc
8c/	.	8cc\	.	.	.	.
=46	=46	=46	=46	=46	=46	=46
8r	.	8r	.	4.a\	na	na
8A/	.	8cc\	.	.	.	.
8r	.	8r	.	.	.	.
8d/	.	8dd\	.	8dd\	te	te
!LO:LB:g=original	!	!	!	!	!	!
=47	=47	=47	=47	=47	=47	=47
!	!	!	!	!LO:SIC:s=8g\:v	!	!
8r	.	8r	.	8g\L	dzi-	dzi-
!	!	!LO:TX:t=P:problem=mixed beam	!	!	!	!
!	!	!	!	!LO:SIC:s=8g\:v	!	!
8G/L	.	8g/L	.	8g\J	-wy	-wy.
8g/	.	8gg\	.	4r	.	.
8cc/J	.	8ccc\J	.	.	.	.
=48	=48	=48	=48	=48	=48	=48
*tremolo	*	*tremolo	*	*	*	*
!	!LO:MO:mod=!null:null	!	!	!	!	!
!	!LO:DY:b:rj	!	!	!	!	!
!	!	!	!LO:DY:t= :mod=%s	!	!	!
!	!	!	!LO:MO:mod=!LO&colon;DY&colon;ed=brack	!	!	!
!	!	!	!null	!	!	!
16ee\LL	f	16eee\LL	f	1r	.	.
16ee\	.	16eee\	.	.	.	.
16ee\	.	16eee\	.	.	.	.
16ee\JJ	.	16eee\JJ	.	.	.	.
16cc\LL	.	16ccc\LL	.	.	.	.
16cc\	.	16ccc\	.	.	.	.
16cc\	.	16ccc\	.	.	.	.
16cc\JJ	.	16ccc\JJ	.	.	.	.
*	*	*	*	*	*	*
=49	=49	=49	=49	=49	=49	=49
*	*	*	*	*	*	*
16a\LL	.	16aa\LL	.	.	.	.
16a\	.	16aa\	.	.	.	.
16a\	.	16aa\	.	.	.	.
16a\JJ	.	16aa\JJ	.	.	.	.
16dd\LL	.	16ddd\LL	.	.	.	.
16dd\	.	16ddd\	.	.	.	.
16dd\	.	16ddd\	.	.	.	.
16dd\JJ	.	16ddd\JJ	.	.	.	.
*	*	*	*	*	*	*
=50	=50	=50	=50	=50	=50	=50
*	*	*	*	*	*	*
16g/LL	.	16gg\LL	.	4r	.	.
16g/	.	16gg\	.	.	.	.
16g/	.	16gg\	.	.	.	.
16g/JJ	.	16gg\JJ	.	.	.	.
*Xtremolo	*	*Xtremolo	*	*	*	*
8G/	.	8g/	.	8r	.	.
8r	.	8r	.	8g\	Trwo-	Trwo-
=51	=51	=51	=51	=51	=51	=51
8r	.	8r	.	4cc\	-ga	-ga,
!	!	!LO:SIC:s=32ccLLL 32e/:v	!	!	!	!
32gLLL 32G/	.	32ccLLL 32d/	.	.	.	.
!	!	!LO:SIC:s=32cc 32e/:v	!	!	!	!
32g 32G/	.	32cc 32d/	.	.	.	.
!	!	!LO:SIC:s=32cc 32e/:v	!	!	!	!
32g 32G/	.	32cc 32d/	.	.	.	.
!	!	!LO:SIC:s=32ccJJJ 32e/:v	!	!	!	!
32gJJJ 32G/	.	32ccJJJ 32d/	.	.	.	.
!	!	!LO:SIC:s=8cc 8e/:v	!	!	!	!
8g 8G/	.	8cc 8d/	.	8r	.	.
8r	.	8r	.	8g\	trwo-	trwo-
!	!	!LO:LB:g=original	!	!	!	!
=52	=52	=52	=52	=52	=52	=52
8r	.	8r	.	4dd\	-ga	-ga
!LO:MO:mod=*tremolo:null	!	!	!	!	!	!
*null	*	*	*	*	*	*
*	*	*tremolo	*	*	*	*
32gLLL 32G/	.	32ddLLL 32d/	.	.	.	.
32g 32G/	.	32dd 32d/	.	.	.	.
32g 32G/	.	32dd 32d/	.	.	.	.
32gJJJ 32G/	.	32ddJJJ 32d/	.	.	.	.
!LO:MO:mod=*Xtremolo:null	!	!	!	!	!	!
*null	*	*	*	*	*	*
8g 8G/	.	8dd 8d/	.	8r	.	.
*	*	*Xtremolo	*	*	*	*
8r	.	8r	.	8g\	dla	dla
!LO:LB:g=original	!	!	!	!LO:LB:g=original	!	!
=53	=53	=53	=53	=53	=53	=53
8r	.	8r	.	4ee\	Bo-	Bo-
16e/LL	.	16ee\LL	.	.	.	.
16e/JJ	.	16ee\JJ	.	.	.	.
8r	.	8r	.	4cc\	-ga	-ga,
16c/LL	.	16cc\LL	.	.	.	.
16c/JJ	.	16cc\JJ	.	.	.	.
=54	=54	=54	=54	=54	=54	=54
8r	.	8r	.	4a\	co	co
16A/LL	.	16a\LL	.	.	.	.
16A/JJ	.	16a\JJ	.	.	.	.
8r	.	8r	.	4dd\	się	się
16d/LL	.	16dd\LL	.	.	.	.
16d/JJ	.	16dd\JJ	.	.	.	.
=55	=55	=55	=55	=55	=55	=55
!	!	!	!	!LO:SIC:s=8g\:v	!	!
16r	.	16r	.	8g\L	dzie-	dzie-
16g/LL	.	16gg\LL	.	.	.	.
!	!	!	!	!LO:SIC:s=8g\:v	!	!
16f#/	.	16ff#\	.	8g\J	-ie	-je,
16e/JJ	.	16ee\JJ	.	.	.	.
16d/LL	.	16dd\LL	.	4r	.	.
16c/	.	16cc\	.	.	.	.
16B/	.	16b\	.	.	.	.
16A/JJ	.	16a\JJ	.	.	.	.
=56	=56	=56	=56	=56	=56	=56
4G/	.	4g/	.	8r	.	.
.	.	.	.	8g\	od	od
4r	.	4r	.	8g\	stra-	stra-
.	.	.	.	8g\	-chu	-chu
=57	=57	=57	=57	=57	=57	=57
*^	*	*	*	*	*	*
!	!	!LO:DY:t= :mod=%s	!	!	!	!	!
!	!	!LO:MO:mod=!LO&colon;DY&colon;ed=brack	!	!	!	!	!
!	!	!null	!	!	!	!	!
8e/L	2G/	p	8cc\L	p	4cc\	ser-	ser-
8e/	.	.	(16b\L	.	.	.	.
.	.	.	16cc\JJ)	.	.	.	.
!	!	!	!	!	!LO:SIC:s=8dd\:v	!	!
!LO:SIC:s=8g/:v	!	!	!	!	!	!	!
8f#/	.	.	8dd\L	.	8dd\L	-ce	-ce
!	!	!	!	!	!LO:SIC:s=8dd\:v	!	!
!LO:SIC:s=8g/J:v	!	!	!	!	!	!	!
8f#/J	.	.	(16cc\L	.	8dd\J	tru-	tru-
.	.	.	16dd\JJ)	.	.	.	.
*v	*v	*	*	*	*	*	*
!	!	!	!	!LO:LB:g=original	!	!
=58	=58	=58	=58	=58	=58	=58
*tremolo	*	*	*	*	*	*
!	!LO:MO:mod=!null:null	!	!	!	!	!
!	!LO:DY:b:rj	!	!	!	!	!
!	!	!	!	!LO:SIC:s=8ee\:v	!	!
!	!	!	!LO:DY:t= :mod=%s	!	!	!
!	!	!	!LO:MO:mod=!LO&colon;DY&colon;ed=brack	!	!	!
!	!	!	!null	!	!	!
8eL 8G/	f	8ee\L	f	8ee\L	-chle-	-chle-
!	!	!	!	!LO:SIC:s=8cc\:v	!	!
!	!	!LO:SIC:s=8cc\J:v	!	!	!	!
8e 8G/	.	8dd\J	.	8cc\J	-ie	-je,
8e 8G/	.	16gg\LL	.	4r	.	.
.	.	16ff#X\	.	.	.	.
8eJ 8G/	.	16gg\	.	.	.	.
.	.	16ee\JJ	.	.	.	.
*	*	*	*	*	*	*
=59	=59	=59	=59	=59	=59	=59
*	*	*	*	*	*	*
8e/L	.	8cc\L	.	8r	.	.
8g/	.	8ee\	.	8cc\	o	ser-
!	!	!	!	!LO:SIC:s=8cc\:v	!	!
8e/	.	8cc\	.	8cc\L	ser-	-ce
!	!	!	!	!LO:SIC:s=8cc\:v	!	!
8g/J	.	8ee\J	.	8cc\J	-ce	tru-
*Xtremolo	*	*	*	*	*	*
!LO:PB:g=original	!	!LO:PB:g=original	!	!	!	!
=60	=60	=60	=60	=60	=60	=60
*tremolo	*	*tremolo	*	*	*	*
16a/LL	.	16aa\LL	.	4a\	tru-	-chle-
16a/	.	16aa\	.	.	.	.
16a/	.	16aa\	.	.	.	.
16a/JJ	.	16aa\JJ	.	.	.	.
!	!	!	!	!LO:SIC:s=4fn/:v	!	!
16fn/LL	.	16ffn\LL	.	4f#/	-chle	-je,
16f/	.	16ff\	.	.	.	.
16f/	.	16ff\	.	.	.	.
16f/JJ	.	16ff\JJ	.	.	.	.
*	*	*	*	*	*	*
=61	=61	=61	=61	=61	=61	=61
*	*	*	*	*	*ij	*
!	!	!	!	!LO:SIC:s=4d\:v	!	!
16d/LL	.	16dd\LL	.	4g\	tru-	tru-
16d/	.	16dd\	.	.	.	.
16d/	.	16dd\	.	.	.	.
16d/JJ	.	16dd\JJ	.	.	.	.
16g/LL	.	16gg\LL	.	4g\	-che-	-chle-
16g/	.	16gg\	.	.	.	.
16g/	.	16gg\	.	.	.	.
16g/JJ	.	16gg\JJ	.	.	.	.
*Xtremolo	*	*Xtremolo	*	*	*Xij	*
=62	=62	=62	=62	=62	=62	=62
!	!	!	!LO:MO:mod=!null:null	!	!	!
8c/L	.	8cc\L	f	4c/	-ie	-je.
8d/	.	8dd\	.	.	.	.
8e/	.	8ee\	.	4r	.	.
!LO:SIC:s=8fn/J:v	!	!LO:SIC:s=8ffn\J:v	!	!	!	!
8f#/J	.	8ff#\J	.	.	.	.
=63	=63	=63	=63	=63	=63	=63
8g/L	.	8gg\L	.	0r	.	.
16g/L	.	16gg\L	.	.	.	.
16f#X/JJ	.	16ff#X\JJ	.	.	.	.
8g/L	.	8gg\L	.	.	.	.
16g/L	.	16gg\L	.	.	.	.
!LO:SIC:s=16f#/JJ:v	!	!	!	!	!	!
16f#X/JJ	.	16ff#\JJ	.	.	.	.
=64	=64	=64	=64	=64	=64	=64
8g/L	.	8gg\L	.	.	.	.
16g/L	.	16gg\L	.	.	.	.
!	!	!LO:SIC:s=16ff#\JJ:v	!	!	!	!
16f#/JJ	.	16ff#X\JJ	.	.	.	.
8g/L	.	8gg\L	.	.	.	.
8cc/J	.	8ccc\J	.	.	.	.
=65	=65	=65	=65	=65	=65	=65
4g/	.	4gg\	.	.	.	.
4e/	.	4ee\	.	.	.	.
=66	=66	=66	=66	=66	=66	=66
8c/L	.	8cc\L	.	.	.	.
8d/	.	8dd\	.	.	.	.
8e/	.	8ee\	.	.	.	.
!LO:SIC:s=8f#/J:v	!	!	!	!	!	!
8f#X/J	.	8ff#\J	.	.	.	.
=67	=67	=67	=67	=67	=67	=67
8g/L	.	8gg\L	.	0r	.	.
16g/L	.	16gg\L	.	.	.	.
!	!	!LO:SIC:s=16ff#\JJ:v	!	!	!	!
!LO:SIC:s=16f#/JJ:v	!	!	!	!	!	!
16f#X/JJ	.	16ff#X\JJ	.	.	.	.
8g/L	.	8gg\L	.	.	.	.
16g/L	.	16gg\L	.	.	.	.
16f#/JJ	.	16ff#\JJ	.	.	.	.
!LO:LB:g=original	!	!	!	!	!	!
=68	=68	=68	=68	=68	=68	=68
8g/L	.	8gg\L	.	.	.	.
!	!	!LO:SIC:s=(16gg\L:v	!	!	!	!
(16g/L	.	16gg\L	.	.	.	.
!	!	!LO:SIC:s=16ee\JJ):v	!	!	!	!
!LO:SIC:s=16e/JJ):v	!	!	!	!	!	!
16f#/JJ)	.	16ee\JJ	.	.	.	.
8fn/L	.	8ffn\L	.	.	.	.
8d/J	.	8dd\J	.	.	.	.
=69	=69	=69	=69	=69	=69	=69
4c/	.	4cc\	.	.	.	.
8cc\	.	8ccc\	.	.	.	.
8r	.	8r	.	.	.	.
=70	=70	=70	=70	=70	=70	=70
8d/	.	8dd 8d/	.	.	.	.
4d/	.	4dd 4d/	.	.	.	.
8d/	.	8dd 8d/	.	.	.	.
!	!	!LO:LB:g=original	!	!	!	!
=71	=71	=71	=71	=71	=71	=71
8c#X/L	.	8cc#X\L	.	1r	.	.
8d/	.	8dd\	.	.	.	.
8e/	.	8ee\	.	.	.	.
!	!	!LO:SIC:s=8dd\J:v	!	!	!	!
8d/J	.	8ff#\J	.	.	.	.
=72	=72	=72	=72	=72	=72	=72
!LO:SIC:s=8c#/L:v	!	!LO:SIC:s=8cc#\L:v	!	!	!	!
8c/L	.	8cc\L	.	.	.	.
8d/	.	8dd\	.	.	.	.
8A/	.	8a\	.	.	.	.
8d/J	.	8dd\J	.	.	.	.
=73	=73	=73	=73	=73	=73	=73
8B/	.	8b/	.	2r	.	.
4G/	.	4gsSSs</	.	.	.	.
8G/	.	8g/	.	.	.	.
!	!	!	!	!LO:LB:g=original	!	!
=74	=74	=74	=74	=74	=74	=74
*tremolo	*	*tremolo	*	*	*	*
8G/L	.	8B/L	.	8dd\	Oy	Oj,
8B/	.	8d/	.	4dd\	nie-	nie-
8G/	.	8B/	.	.	.	.
8B/J	.	8d/J	.	8dd\	-bo	-bo
*	*	*	*	*	*	*
=75	=75	=75	=75	=75	=75	=75
*rep	*	*	*	*	*	*
!	!	!	!	!LO:SIC:s=8cc#X\:v	!	!
8G/L	.	8B/L	.	8cc#X\L	o-	o-
8B/	.	8d/	.	8dd\	-two-	-two-
8G/	.	8B/	.	8ee\	-rzo-	-rzo-
!	!	!	!	!LO:SIC:s=8dd\:v	!	!
8B/J	.	8d/J	.	8dd\J	-ne	-ne,
*Xrep	*	*	*	*	*	*
*Xtremolo	*	*Xtremolo	*	*	*	*
=76	=76	=76	=76	=76	=76	=76
!	!	!	!	!LO:SIC:s=8cc#X\:v	!	!
8G/L	.	8B/L	.	8cc#X\L	woy-	woj-
8B/	.	8d/	.	8dd\	-ska	-ska
8A/	.	8A/	.	8a\	nie-	nie-
!	!	!	!	!LO:SIC:s=8dd\:v	!	!
8G/J	.	8d/J	.	8dd\J	-zli-	-zli-
!LO:LB:g=original	!	!	!	!	!	!
=77	=77	=77	=77	=77	=77	=77
*tremolo	*	*tremolo	*	*	*	*
8G/L	.	8B/L	.	8b\	-czo-	-czo-
8B/	.	8d/	.	4g\	-ne	-ne,
8G/	.	8B/	.	.	.	.
8B/J	.	8d/J	.	8r	.	.
*	*	*	*	*	*	*
=78	=78	=78	=78	=78	=78	=78
*	*	*	*	*	*	*
!	!	!	!	!LO:SIC:s=8a/:v	!	!
8d/L	.	8cc/L	.	8a/L	a-	a-
!	!	!	!	!LO:SIC:s=8aL/:v	!	!
8f#/	.	8d/	.	8a/J	-niel-	-niel-
!	!	!	!	!LO:LB:g=original	!	!
!!LO:MO:ori
=-	=-	=-	=-	=-	=-	=-
!!LO:MO:end
!	!	!	!	!LO:SIC:s=8d/J:v	!	!
8d/	.	8cc/	.	8d/	.	.
8f#/J	.	8d/J	.	8f#/	-skie	-skie
*	*	*	*	*	*	*
=79	=79	=79	=79	=79	=79	=79
*	*	*	*	*	*	*
8g/L	.	8b/L	.	8g\	wi-	wi-
8B/	.	8d/	.	4b\	-dzie-	-dzi-
8g/	.	8b/	.	.	.	.
8B/J	.	8d/J	.	8g\	-my	-my,
*	*	*	*	*	*	*
=80	=80	=80	=80	=80	=80	=80
*	*	*	*	*	*	*
!	!	!	!	!LO:SIC:s=8f#/:v	!	!
8d/L	.	8a/L	.	8f#/L	a-	a-
!	!	!	!	!LO:SIC:s=8f#/:v	!	!
8f#/	.	8cc/	.	8f#/J	-niel-	-niel-
8d/	.	8a/	.	8d/	-skie	-skie
8f#/J	.	8cc/J	.	8f#/	wi-	wi-
*	*	*Xtremolo	*	*	*	*
=81	=81	=81	=81	=81	=81	=81
*	*	*	*	*	*	*
8g/L	.	8b\L	.	8g\	-dzie-	-dzi-
8b/	.	8dd\	.	4g\	-my	-my.
8g/	.	8b\	.	.	.	.
8b/J	.	8gg\J	.	8r	.	.
*Xtremolo	*	*	*	*	*	*
=82	=82	=82	=82	=82	=82	=82
16A/LL	.	8ff#\L	.	0r	.	.
16d/	.	.	.	.	.	.
16c/	.	16ff#\L	.	.	.	.
16d/JJ	.	16ee\JJ	.	.	.	.
*rep	*	*	*	*	*	*
16A/LL	.	16dd\LL	.	.	.	.
16d/	.	16ee\	.	.	.	.
16c/	.	16ff#\	.	.	.	.
16d/JJ	.	16dd\JJ	.	.	.	.
*Xrep	*	*	*	*	*	*
=83	=83	=83	=83	=83	=83	=83
16G/LL	.	8gg\L	.	.	.	.
16d/	.	.	.	.	.	.
16B/	.	16gg\L	.	.	.	.
16d/JJ	.	16ff#\JJ	.	.	.	.
*rep	*	*	*	*	*	*
16G/LL	.	16gg\LL	.	.	.	.
16d/	.	16aa\	.	.	.	.
16B/	.	16bb\	.	.	.	.
16d/JJ	.	16gg\JJ	.	.	.	.
*Xrep	*	*	*	*	*	*
!	!	!LO:LB:g=original	!	!	!	!
=84	=84	=84	=84	=84	=84	=84
16A/LL	.	8ff#\L	.	.	.	.
16d/	.	.	.	.	.	.
16c/	.	16ff#\L	.	.	.	.
16d/JJ	.	16ee\JJ	.	.	.	.
*rep	*	*	*	*	*	*
16A/LL	.	16dd\LL	.	.	.	.
16d/	.	16ee\	.	.	.	.
16c/	.	16ff#\	.	.	.	.
16d/JJ	.	16dd\JJ	.	.	.	.
*Xrep	*	*	*	*	*	*
=85	=85	=85	=85	=85	=85	=85
16G/LL	.	8gg\	.	.	.	.
16d/	.	.	.	.	.	.
16B/	.	4gg\	.	.	.	.
16d/JJ	.	.	.	.	.	.
*rep	*	*	*	*	*	*
16G/LL	.	.	.	.	.	.
16d/	.	.	.	.	.	.
16B/	.	8g/	.	.	.	.
16d/JJ	.	.	.	.	.	.
*Xrep	*	*	*	*	*	*
!	!	!	!	!LO:LB:g=original	!	!
=86	=86	=86	=86	=86	=86	=86
*tremolo	*	*tremolo	*	*	*	*
8g/L	.	8b\L	.	8dd\	Ey	Hej,
8b/	.	8dd\	.	4dd\	trwo-	trwo-
8g/	.	8b\	.	.	.	.
8b/J	.	8dd\J	.	8dd\	-ga	-ga
*Xtremolo	*	*	*	*	*	*
!LO:LB:g=original	!	!	!	!	!	!
=87	=87	=87	=87	=87	=87	=87
*tremolo	*	*	*	*	*	*
*rep	*	*rep	*	*	*	*
8g/L	.	8b\L	.	8cc#X\L	dla	dla
8b/	.	8dd\	.	8dd\J	.	.
!	!	!	!	!LO:SIC:s=8ee\:v	!	!
8g/	.	8b\	.	8ee\L	Bo-	Bo-
!	!	!	!	!LO:SIC:s=8dd\:v	!	!
8b/J	.	8dd\J	.	8dd\J	-ga	-ga,
*Xtremolo	*	*Xrep	*	*	*	*
*Xrep	*	*Xtremolo	*	*	*	*
=88	=88	=88	=88	=88	=88	=88
8g/L	.	8b\L	.	8cc#X\L	co	co
8b/	.	8dd\	.	8dd\J	.	.
8f#/	.	8a\	.	8a\L	sie	się
8d/J	.	8dd\J	.	8dd\J	.	.
=89	=89	=89	=89	=89	=89	=89
*tremolo	*	*tremolo	*	*	*	*
8b/L	.	8b/L	.	8b\	dzie-	dzie-
8B/	.	8g/	.	4g\	-ie	-je,
8b/	.	8b/	.	.	.	.
8B/J	.	8g/J	.	8r	.	.
*Xtremolo	*	*Xtremolo	*	*	*	*
=90	=90	=90	=90	=90	=90	=90
2d 2c/	.	8f#/L	.	8f#/	od	od
.	.	16f#/L	.	4a\	stra-	stra-
.	.	16e/JJ	.	.	.	.
.	.	16d/LL	.	.	.	.
.	.	16e/	.	.	.	.
.	.	16f#/	.	8d/	-chu	-chu
.	.	16d/JJ	.	.	.	.
!	!	!	!	!LO:LB:g=original	!	!
=91	=91	=91	=91	=91	=91	=91
2d 2B/	.	8g/L	.	8g\L	ser-	ser-
.	.	16g/L	.	8a\J	.	.
.	.	16f#/JJ	.	.	.	.
.	.	16g/LL	.	8b\L	-ce	-ce,
.	.	16a/	.	.	.	.
.	.	16b/	.	8dd\J	.	.
.	.	16g/JJ	.	.	.	.
=92	=92	=92	=92	=92	=92	=92
!	!	!LO:TX:t=P:problem=mixed beam	!	!	!	!
2d 2A/	.	8f#/L	.	8f#/	ser-	ser-
.	.	16ff#\L	.	4a\	-ce	-ce
.	.	16ee\JJ	.	.	.	.
.	.	16dd\LL	.	.	.	.
.	.	16ee\	.	.	.	.
.	.	16ff#\	.	8d/	tru-	tru-
.	.	16ee\JJ	.	.	.	.
=93	=93	=93	=93	=93	=93	=93
2d 2B/	.	8gg\	.	8a\L	-chle-	-chle-
.	.	4b\	.	8g\J	.	.
.	.	.	.	8g\	-ie	-je.
.	.	8gg\	.	8r	.	.
=94	=94	=94	=94	=94	=94	=94
*tremolo	*	*	*	*	*	*
16ccLL 16d/	.	8ff#\L	.	0r	.	.
16cc 16d/	.	.	.	.	.	.
16cc 16d/	.	16ff#\L	.	.	.	.
16cc 16d/	.	16ee\JJ	.	.	.	.
16cc 16d/	.	16dd\LL	.	.	.	.
16cc 16d/	.	16ee\	.	.	.	.
16cc 16d/	.	16ff#\	.	.	.	.
16ccJJ 16d/	.	16dd\JJ	.	.	.	.
*	*	*	*	*	*	*
!	!	!LO:LB:g=original	!	!	!	!
=95	=95	=95	=95	=95	=95	=95
*	*	*	*	*	*	*
16bLL 16d/	.	8gg\L	.	.	.	.
16b 16d/	.	.	.	.	.	.
16b 16d/	.	16gg\L	.	.	.	.
16b 16d/	.	16ff#\JJ	.	.	.	.
16b 16d/	.	16gg\LL	.	.	.	.
16b 16d/	.	16aa\	.	.	.	.
16b 16d/	.	16bb\	.	.	.	.
16bJJ 16d/	.	16gg\JJ	.	.	.	.
*	*	*	*	*	*	*
=96	=96	=96	=96	=96	=96	=96
*	*	*	*	*	*	*
16ccLL 16d/	.	8ff#\L	.	.	.	.
16cc 16d/	.	.	.	.	.	.
16cc 16d/	.	16ff#\L	.	.	.	.
16cc 16d/	.	16ee\JJ	.	.	.	.
16cc 16d/	.	16dd\LL	.	.	.	.
16cc 16d/	.	16ee\	.	.	.	.
16cc 16d/	.	16ff#\	.	.	.	.
16ccJJ 16d/	.	16dd\JJ	.	.	.	.
*	*	*	*	*	*	*
=97	=97	=97	=97	=97	=97	=97
*	*	*	*	*	*	*
16bLL 16d/	.	8gg\	.	.	.	.
16b 16d/	.	.	.	.	.	.
16b 16d/	.	4gg\	.	.	.	.
16b 16d/	.	.	.	.	.	.
16b 16d/	.	.	.	.	.	.
16b 16d/	.	.	.	.	.	.
16b 16d/	.	16aa\LL	.	.	.	.
16bJJ 16d/	.	16bb\JJ	.	.	.	.
*Xtremolo	*	*	*	*	*	*
=98	=98	=98	=98	=98	=98	=98
2d 2c/	.	8dd\L	.	0r	.	.
.	.	(16ee\L	.	.	.	.
.	.	16ff#\JJ)	.	.	.	.
.	.	8dd\L	.	.	.	.
.	.	(16ee\L	.	.	.	.
.	.	16ff#\JJ)	.	.	.	.
=99	=99	=99	=99	=99	=99	=99
2d 2B/	.	8gg\L	.	.	.	.
.	.	16aa\L	.	.	.	.
.	.	16bb\JJ	.	.	.	.
.	.	8gg\L	.	.	.	.
.	.	16aa\L	.	.	.	.
.	.	16bb\JJ	.	.	.	.
=100	=100	=100	=100	=100	=100	=100
2d 2B/	.	8gg\L	.	.	.	.
.	.	8bb\J	.	.	.	.
.	.	8ddd\L	.	.	.	.
.	.	8bb\J	.	.	.	.
=101	=101	=101	=101	=101	=101	=101
4d 4B/	.	8gg\L	.	.	.	.
.	.	16aa\L	.	.	.	.
.	.	16bb\JJ	.	.	.	.
4d 4c/	.	8dd\L	.	.	.	.
.	.	16ee\L	.	.	.	.
.	.	16ff#\JJ	.	.	.	.
!LO:LB:g=original	!	!	!	!	!	!
=102	=102	=102	=102	=102	=102	=102
*tremolo	*	*	*	*	*	*
!	!	!LO:TX:t=P:problem=mixed beam	!	!	!	!
8dL 8G/	.	8gg\L	.	8r	.	.
8d 8G/	.	8b 8d/	.	8dd\	Hey	Hej,
8d 8G/	.	8b 8d/	.	4dd\	pa-	pa-
8dJ 8G/	.	8bJ 8d/	.	.	.	.
*	*	*	*	*	*	*
=103	=103	=103	=103	=103	=103	=103
*rep	*	*tremolo	*	*	*	*
!	!	!	!	!LO:SIC:s=8cc#X\:v	!	!
8dL 8G/	.	8bL 8g/	.	8cc#X\L	-ste-	-ste-
!	!	!	!	!LO:SIC:s=8dd\:v	!	!
8d 8G/	.	8b 8g/	.	8dd\J	-rze	-rze
!!LO:MO:ori
=-	=-	=-	=-	=-	=-	=-
!!LO:MO:end
!	!	!	!	!LO:SIC:s=8ee\:v	!	!
8d 8G/	.	8b 8g/	.	8ee\L	mi-	mi-
!	!	!	!	!LO:SIC:s=8dd\:v	!	!
8dJ 8G/	.	8bJ 8g/	.	8dd\J	-li	-li,
*Xrep	*	*	*	*	*	*
!	!	!LO:LB:g=original	!	!	!	!
=104	=104	=104	=104	=104	=104	=104
*rep	*	*rep	*	*	*	*
!	!	!	!	!LO:SIC:s=8cc#\:v	!	!
8dL 8G/	.	8bL 8g/	.	8cc\	dzi-	dzi-
8d 8G/	.	8b 8g/	.	8dd\	-siay	-siaj
8d 8G/	.	8b 8g/	.	8a\	o	o
8dJ 8G/	.	8bJ 8g/	.	8dd\	tey	tej
*Xrep	*	*Xrep	*	*	*	*
=105	=105	=105	=105	=105	=105	=105
*rep	*	*rep	*	*	*	*
8dL 8G/	.	8bL 8g/	.	8b\	chwi-	chwi-
8d 8G/	.	8b 8g/	.	4g\	-li	-li,
8d 8G/	.	8b 8g/	.	.	.	.
8dJ 8G/	.	8bJ 8g/	.	8r	.	.
*Xrep	*	*Xrep	*	*	*	*
=106	=106	=106	=106	=106	=106	=106
*	*	*rep	*	*	*	*
!	!	!LO:SIC:s=8a/L 8f#:v	!	!	!	!
8dL 8A/	.	8bL 8g/	.	8f#/	Chri-	Chry-
!	!	!LO:SIC:s=8a/ 8f#:v	!	!	!	!
8d 8A/	.	8b 8g/	.	8f#/	-stus	-stus
!	!	!LO:SIC:s=8a/ 8f#:v	!	!	!	!
8d 8A/	.	8b 8g/	.	8d/	sie	się
!	!	!LO:SIC:s=8a/J 8f#:v	!	!	!	!
8dJ 8A/	.	8bJ 8g/	.	8f#/	na	na-
*	*	*Xrep	*	*	*	*
=107	=107	=107	=107	=107	=107	=107
*	*	*rep	*	*	*	*
8dL 8B/	.	8bL 8g/	.	8g\	ro-	-ro-
8d 8B/	.	8b 8g/	.	4b\	-dził	-dził,
8d 8B/	.	8b 8g/	.	.	.	.
8dJ 8B/	.	8bJ 8g/	.	8r	.	.
*	*	*Xrep	*	*	*	*
!	!	!	!	!LO:LB:g=original	!	!
=108	=108	=108	=108	=108	=108	=108
*	*	*rep	*	*	*	*
!	!	!LO:SIC:s=8a/L 8f#:v	!	!	!	!
8dL 8A/	.	8bL 8g/	.	8f#/	Chri-	Chry-
!	!	!LO:SIC:s=8a/ 8f#:v	!	!	!	!
8d 8A/	.	8b 8g/	.	8f#/	-stus	-stus
!	!	!LO:SIC:s=8a/ 8f#:v	!	!	!	!
8d 8A/	.	8b 8g/	.	8d/	sie	się
!	!	!LO:SIC:s=8a/J 8f#:v	!	!	!	!
8dJ 8A/	.	8bJ 8g/	.	8f#/	na-	na-
*	*	*Xrep	*	*	*	*
*Xtremolo	*	*Xtremolo	*	*	*	*
=109	=109	=109	=109	=109	=109	=109
!!LO:MO:ori
!LO:TX:t=P:problem=brakujący takt	!	!LO:TX:t=P:problem=mixed beam	!	!	!	!
2ryy	.	8bL 8g/	.	8g\	-ro-	-ro-
.	.	8b 8g/	.	4g\	-dził	-dził.
.	.	8b 8g/	.	.	.	.
.	.	8gg\J	.	8r	.	.
=110	=110	=110	=110	=110	=110	=110
!!LO:MO:end
!!LO:MO:mod
!! !	!	!LO:TX:t=P:problem=mixed beam	!	!	!	!
!! 8ggL	.	8bL 8g/	.	8g\	-ro-	-ro-
!! 16dd	.	8b 8g/	.	4g\	-dził	-dził.
!! 16b	.	.	.	.	.	.
!! 4gJ	.	8b 8g/	.	.	.	.
!! .	.	8gg\J	.	8r	.	.
!! =110	=110	=110	=110	=110	=110	=110
!!LO:MO:end
8d/	.	8dd\	.	8dd\	Oy	Oj,
4d/	.	4dd\	.	4dd\	do	do
.	.	.	.	.	.	.
8d/	.	8dd\	.	8dd\	Be-	Be-
=111	=111	=111	=111	=111	=111	=111
!	!	!	!	!LO:SIC:s=8cc#X\:v	!	!
8c#X/L	.	8cc#X\L	.	8cc#X\L	-thle-	-tle-
8d/	.	8dd\	.	8dd\	-em	-jem
8e/	.	8ee\	.	8ee\	bieſz-	bież-
!	!	!	!	!LO:MO:mod=!null:null	!	!
!	!	!	!	!LO:TX:b:t=V&colon;C&colon;	!	!
!	!	!	!	!LO:SIC:s=8dd\:v	!	!
8d/J	.	8dd\J	.	8dd\J	-cie	-cie,
!	!	!	!	!LO:PB:g=original	!	!
=112	=112	=112	=112	=112	=112	=112
!	!	!LO:SIC:s=8cc#\L:v	!	!	!	!
!	!	!	!	!LO:SIC:s=8cc#X\:v	!	!
!LO:SIC:s=8c#/L:v	!	!	!	!	!	!
8A/L	.	8cc\L	.	8cc#X\L	tam	tam
!	!	!	!	!LO:SIC:s=8dd\:v	!	!
8d/	.	8dd\	.	8dd\J	dzie-	dzie-
!	!	!	!	!LO:SIC:s=8a\:v	!	!
8A/	.	8a\	.	8a\L	-cie	-cię
!	!	!	!	!LO:SIC:s=8dd\:v	!	!
8d/J	.	8dd\J	.	8dd\J	znay-	znaj-
=113	=113	=113	=113	=113	=113	=113
8B/	.	8b/	.	8b\	-dzie-	-dzie-
4G/	.	4g/	.	4g\	-cie	-cie,
8G/	.	8g/	.	8r	.	.
=114	=114	=114	=114	=114	=114	=114
2d 2A/	.	8f#/L	.	8f#/	tam	tam
.	.	16f#/L	.	8f#/	dzi-	dzie-
.	.	16e/JJ	.	.	.	.
.	.	16d/LL	.	8d/	-cie	-cię
.	.	16e/	.	.	.	.
.	.	16f#/	.	8f#/	znay-	znaj-
.	.	16d/JJ	.	.	.	.
!LO:LB:g=original	!	!	!	!	!	!
=115	=115	=115	=115	=115	=115	=115
!!LO:MO:ori
2d 2B/	.	8g/L	.	8g\	-dzie-	-dzie-
.	.	16g/L	.	4b\	-cie	-cie,
.	.	16f#/JJ	.	.	.	.
!	!	!LO:LB:g=original	!	!	!	!
=-	=-	=-	=-	=-	=-	=-
.	.	16g/LL	.	.	.	.
.	.	16a/	.	.	.	.
.	.	16b/	.	8r	.	.
.	.	16g/JJ	.	.	.	.
!	!	!	!	!LO:LB:g=original	!	!
=116	=116	=116	=116	=116	=116	=116
!!LO:MO:end
!!LO:MO:mod
!! 2d 2B/	.	8g/L	.	8g\	-dzie-	-dzie-
!! .	.	16g/L	.	4b\	-cie	-cie,
!! .	.	16f#/JJ	.	.	.	.
!! !	!	!LO:LB:g=original	!	!	!	!
!! .	.	16g/LL	.	.	.	.
!! .	.	16a/	.	.	.	.
!! .	.	16b/	.	8r	.	.
!! .	.	16g/JJ	.	.	.	.
!! !	!	!	!	!LO:LB:g=original	!	!
!! =116	=116	=116	=116	=116	=116	=116
!!LO:MO:end
2d 2c/	.	8f#/L	.	8f#/	tam	tam
.	.	16f#/L	.	8f#/	dzie-	dzie-
.	.	16e/JJ	.	.	.	.
.	.	16d/LL	.	8d/	-cie	-cię
.	.	16e/	.	.	.	.
.	.	16f#/	.	8f#/	znay-	znaj-
.	.	16d/JJ	.	.	.	.
=117	=117	=117	=117	=117	=117	=117
2d 2B/	.	8g/	.	8g\	-dzie-	-dzie-
.	.	.	.	.	.	.
.	.	4g/	.	4g\	-cie	-cie.
.	.	.	.	.	.	.
.	.	.	.	.	.	.
.	.	.	.	.	.	.
.	.	8gg\	.	8r	.	.
.	.	.	.	.	.	.
=118	=118	=118	=118	=118	=118	=118
16A/LL	.	16ff#\LL	.	0r	.	.
16d/	.	16ee\	.	.	.	.
16c/	.	16dd\	.	.	.	.
16d/JJ	.	16ee\JJ	.	.	.	.
*rep	*	*	*	*	*	*
16A/LL	.	16ff#\LL	.	.	.	.
16d/	.	16gg\	.	.	.	.
16c/	.	16aa\	.	.	.	.
16d/JJ	.	16ff#\JJ	.	.	.	.
*Xrep	*	*	*	*	*	*
=119	=119	=119	=119	=119	=119	=119
*	*	*tremolo	*	*	*	*
16G/LL	.	16gg\LL	.	.	.	.
16d/	.	16gg\	.	.	.	.
16B/	.	16gg\	.	.	.	.
16d/JJ	.	16gg\JJ	.	.	.	.
*rep	*	*Xtremolo	*	*	*	*
16G/LL	.	16bb\LL	.	.	.	.
16d/	.	16bb\	.	.	.	.
16B/	.	16gg\	.	.	.	.
16d/JJ	.	16gg\JJ	.	.	.	.
*Xrep	*	*	*	*	*	*
=120	=120	=120	=120	=120	=120	=120
16A/LL	.	16ff#\LL	.	.	.	.
16d/	.	16ff#\	.	.	.	.
16c/	.	16aa\	.	.	.	.
16d/JJ	.	16aa\JJ	.	.	.	.
*rep	*	*	*	*	*	*
16A/LL	.	16ddd\LL	.	.	.	.
16d/	.	16ddd\	.	.	.	.
16c/	.	16ff#\	.	.	.	.
16d/JJ	.	16ff#\JJ	.	.	.	.
*Xrep	*	*	*	*	*	*
=121	=121	=121	=121	=121	=121	=121
16G/LL	.	4.gg\	.	.	.	.
16d/	.	.	.	.	.	.
16B/	.	.	.	.	.	.
16d/JJ	.	.	.	.	.	.
*rep	*	*	*	*	*	*
16G/LL	.	.	.	.	.	.
16d/	.	.	.	.	.	.
16B/	.	8gg\	.	.	.	.
16d/JJ	.	.	.	.	.	.
*Xrep	*	*	*	*	*	*
=122	=122	=122	=122	=122	=122	=122
2d 2A/	.	4.ff#\	.	0r	.	.
.	.	8aa\	.	.	.	.
!	!	!LO:LB:g=original	!	!	!	!
=123	=123	=123	=123	=123	=123	=123
2d 2A/	.	8.dd\L	.	.	.	.
.	.	16ccc\Jk	.	.	.	.
.	.	8.ff#\L	.	.	.	.
.	.	16aa\Jk	.	.	.	.
=124	=124	=124	=124	=124	=124	=124
2d 2B/	.	4.gg\	.	.	.	.
.	.	8bb\	.	.	.	.
=125	=125	=125	=125	=125	=125	=125
2d 2B/	.	8.gg\L	.	.	.	.
.	.	.	.	.	.	.
.	.	16bb\Jk	.	.	.	.
.	.	8.gg\L	.	.	.	.
.	.	.	.	.	.	.
.	.	16ddd\Jk	.	.	.	.
=126	=126	=126	=126	=126	=126	=126
*tremolo	*	*	*	*	*	*
8d 8A/	.	4.ff#\	.	0r	.	.
8d 8A/	.	.	.	.	.	.
8d 8A/	.	.	.	.	.	.
8d 8A/	.	8aa\	.	.	.	.
*Xtremolo	*	*	*	*	*	*
=127	=127	=127	=127	=127	=127	=127
2d 2A/	.	8.dd\L	.	.	.	.
.	.	16ddd\Jk	.	.	.	.
.	.	8.ff#\L	.	.	.	.
.	.	16aa\Jk	.	.	.	.
=128	=128	=128	=128	=128	=128	=128
4d 4B/	.	4gg\	.	.	.	.
4r	.	4r	.	.	.	.
=129	=129	=129	=129	=129	=129	=129
4g 4B/	.	4gg 4b 4d/	.	.	.	.
4d 4B/	.	4bb 4dd 4g 4G/	.	.	.	.
=130	=130	=130	=130	=130	=130	=130
4d 4B/	.	4gg 4b 4d/	.	2r	.	.
4r	.	4r	.	.	.	.
!LO:PB:g=original	!	!LO:PB:g=original	!	!LO:LB:g=original	!	!
==	==	==	==	==	==	==
*-	*-	*-	*-	*-	*-	*-
!!!system-decoration: [(s1,s2,s3)]
!!!system-decoration-mod: s1[(s2,s3)]
!!!RDF**kern: < = below
!!!RDF**kern: > = above
!!!filter-modern: tie -s | sic -sq | shed -e "s/TX(.*):t=P:/tx$1:t=P:/LG" | modori -m | autostem -r | shed -e "s/yy//" | shed -k -e "s/\(y([^y])/($1/" | shed -e "s/-//B" | shed -e "s/^(\d+[\/\\]right)/$1yy/I; s/^(\d+[\/\\]left)/$1yy/I" | shed -e "s/^(X?)rep$/$1REP/I" | shed -k -e "s/[<>]//g"
!!!ENC: Marta Opryszak
!!!END: 2021-11-24
!!!EED: Marta Chmielewska
!!!EEV: 2021-11-30
!!!EED-modern: Antoni Szymański
!!!END-modern: 2022-08-28
